X:2121
L:1/8
M:6/8
K:C
 c' | agf e2 d | e2 c A2 B | c2 d e2 f | g3 e2 c' | agf e2 d | e2 c ABc | d2 B GAB | c3 c2 :: f | 
 e2 g a2 b | c'2 g e2 c | e2 g a2 b | c'3 abc' | agf e2 c | d2 c Bcd | d2 B GAB | c3 c2 :|

